contributed-vectors/ppsspp.svg

<?xml version="1.0" encoding="UTF-8" standalone="no"?>
<svg
   xmlns:dc="http://purl.org/dc/elements/1.1/"
   xmlns:cc="http://creativecommons.org/ns#"
   xmlns:rdf="http://www.w3.org/1999/02/22-rdf-syntax-ns#"
   xmlns:svg="http://www.w3.org/2000/svg"
   xmlns="http://www.w3.org/2000/svg"
   xmlns:sodipodi="http://sodipodi.sourceforge.net/DTD/sodipodi-0.dtd"
   xmlns:inkscape="http://www.inkscape.org/namespaces/inkscape"
   width="100%"
   height="100%"
   viewBox="0 0 192 192"
   version="1.1"
   xml:space="preserve"
   style="fill-rule:evenodd;clip-rule:evenodd;stroke-linejoin:round;stroke-miterlimit:2;"
   id="svg25"
   sodipodi:docname="ppsspp.svg"
   inkscape:version="1.0.1 (3bc2e813f5, 2020-09-07)"
   inkscape:export-filename="ppsspp.png"
   inkscape:export-xdpi="96"
   inkscape:export-ydpi="96"><metadata
   id="metadata31"><rdf:RDF><cc:Work
       rdf:about=""><dc:format>image/svg+xml</dc:format><dc:type
         rdf:resource="http://purl.org/dc/dcmitype/StillImage" /></cc:Work></rdf:RDF></metadata><defs
   id="defs29" /><sodipodi:namedview
   pagecolor="#ffffff"
   bordercolor="#666666"
   borderopacity="1"
   objecttolerance="10"
   gridtolerance="10"
   guidetolerance="10"
   inkscape:pageopacity="0"
   inkscape:pageshadow="2"
   inkscape:window-width="1884"
   inkscape:window-height="1052"
   id="namedview27"
   showgrid="false"
   inkscape:zoom="2.4490938"
   inkscape:cx="58.807435"
   inkscape:cy="41.939769"
   inkscape:window-x="36"
   inkscape:window-y="0"
   inkscape:window-maximized="1"
   inkscape:current-layer="svg25" />
    <g
   transform="matrix(0.99346405,0,0,0.99346405,8.5751636,8.5751636)"
   id="g4"
   style="fill:#56595b;fill-opacity:1">
            <path
   d="m 164.5,21.5 c 0,-5.519 -4.481,-10 -10,-10 h -133 c -5.519,0 -10,4.481 -10,10 v 133 c 0,5.519 4.481,10 10,10 h 133 c 5.519,0 10,-4.481 10,-10 z"
   style="fill:#56595b;fill-opacity:1"
   id="path2" />
        </g><g
   transform="matrix(0.62932371,0,0,0.62932371,35.584955,35.584955)"
   id="g22">
            <g
   transform="rotate(-12.623531,96.000265,96.000414)"
   id="g8">
                <path
   d="M 71.403,125.652 96,100.553 l 24.597,25.099 v 39.342 H 71.403 Z"
   style="fill:#9abeff"
   id="path6" />
            </g>
            <g
   transform="rotate(-102.62353,96.000188,96.000165)"
   id="g12">
                <path
   d="M 71.403,125.652 96,100.553 l 24.597,25.099 v 39.342 H 71.403 Z"
   style="fill:#9abeff"
   id="path10" />
            </g>
            <g
   transform="rotate(167.37647,96.000201,95.999937)"
   id="g16">
                <path
   d="M 71.403,125.652 96,100.553 l 24.597,25.099 v 39.342 H 71.403 Z"
   style="fill:#9abeff"
   id="path14" />
            </g>
            <g
   transform="rotate(77.376469,95.999968,95.999853)"
   id="g20">
                <path
   d="M 71.403,125.652 96,100.553 l 24.597,25.099 v 39.342 H 71.403 Z"
   style="fill:#9abeff"
   id="path18" />
            </g>
        </g>
</svg>

<?xml version="1.0" encoding="UTF-8" standalone="no"?>
<!DOCTYPE svg PUBLIC "-//W3C//DTD SVG 1.1//EN" "http://www.w3.org/Graphics/SVG/1.1/DTD/svg11.dtd">
<svg width="100%" height="100%" viewBox="0 0 192 192" version="1.1" xmlns="http://www.w3.org/2000/svg" xmlns:xlink="http://www.w3.org/1999/xlink" xml:space="preserve" xmlns:serif="http://www.serif.com/" style="fill-rule:evenodd;clip-rule:evenodd;stroke-linejoin:round;stroke-miterlimit:2;">
    <g id="Layer1">
        <g transform="matrix(1,0,0,1,8,8)">
            <path d="M164.5,21.5C164.5,15.981 160.019,11.5 154.5,11.5L21.5,11.5C15.981,11.5 11.5,15.981 11.5,21.5L11.5,154.5C11.5,160.019 15.981,164.5 21.5,164.5L154.5,164.5C160.019,164.5 164.5,160.019 164.5,154.5L164.5,21.5Z" style="fill:rgb(74,74,74);"/>
        </g>
        <g transform="matrix(0.633464,0,0,0.633464,35.1874,35.1874)">
            <g transform="matrix(0.975827,-0.218544,0.218544,0.975827,-18.6597,23.3009)">
                <path d="M71.403,125.652L96,100.553L120.597,125.652L120.597,164.994L71.403,164.994L71.403,125.652Z" style="fill:rgb(154,190,255);"/>
            </g>
            <g transform="matrix(-0.218544,-0.975827,0.975827,-0.218544,23.3009,210.66)">
                <path d="M71.403,125.652L96,100.553L120.597,125.652L120.597,164.994L71.403,164.994L71.403,125.652Z" style="fill:rgb(154,190,255);"/>
            </g>
            <g transform="matrix(-0.975827,0.218544,-0.218544,-0.975827,210.66,168.699)">
                <path d="M71.403,125.652L96,100.553L120.597,125.652L120.597,164.994L71.403,164.994L71.403,125.652Z" style="fill:rgb(154,190,255);"/>
            </g>
            <g transform="matrix(0.218544,0.975827,-0.975827,0.218544,168.699,-18.6597)">
                <path d="M71.403,125.652L96,100.553L120.597,125.652L120.597,164.994L71.403,164.994L71.403,125.652Z" style="fill:rgb(154,190,255);"/>
            </g>
        </g>
    </g>
</svg>
